X:225 
T:Wild Ducks' Flight*, The  
S:James McMahon
F:file ID: cre.4/225wild_df
B:CRE4.012 (Eitilt na Lachan FiÃÂÃÂÃÂÃÂ¡ine)
L:1/8
Q:160
M:6/8
R:jig
K:D
A|DCD AFD|GBG AFD|GBG FAF|ECE GFE|
"5"DCD AFD|GBG AFD|GBG AFD|GEC D2:|
|:A|"9"dfa afd|gfg bge|afd gec|dcd ecA|
[1 "13" dfa afd|gfg bge|afd Bgf|edc d2:|
[2 "13a" dfd ecA|dBG AFD|GBG AFD|GEC D3|]

%%%

